X: 1
T:POLKA 1
M:4/4
L:1/4
Q:1/4=100
K:G 
|:DGDG DGA3/2B/2|cBAG FE/2F/2ED|DGDG DGA3/2B/2|cBAG FE/2F/2G2:|!
GABG/2B/2 dGB2|GABc/2d/2 cBA2|ABcd/2c/2 BABG|FGAB/2A/2 GABG|
ABcd/2c/2 BABG|FGAB/2A/2 GFG2|
